backend/metamodel/syson-sysml-metamodel-edit/src/main/resources/icons/full/obj16/NamespaceImport.svg

<?xml version="1.0" encoding="UTF-8" standalone="no"?>
<svg
   width="18"
   height="16"
   viewBox="0 0 4.7624999 4.2333332"
   version="1.1"
   id="svg8"
   inkscape:version="1.2.2 (b0a8486541, 2022-12-01)"
   sodipodi:docname="NamespaceImport.svg"
   xmlns:inkscape="http://www.inkscape.org/namespaces/inkscape"
   xmlns:sodipodi="http://sodipodi.sourceforge.net/DTD/sodipodi-0.dtd"
   xmlns="http://www.w3.org/2000/svg"
   xmlns:svg="http://www.w3.org/2000/svg"
   xmlns:rdf="http://www.w3.org/1999/02/22-rdf-syntax-ns#"
   xmlns:cc="http://creativecommons.org/ns#"
   xmlns:dc="http://purl.org/dc/elements/1.1/">
  <defs
     id="defs2" />
  <sodipodi:namedview
     id="base"
     pagecolor="#ffffff"
     bordercolor="#666666"
     borderopacity="1.0"
     inkscape:pageopacity="0"
     inkscape:pageshadow="2"
     inkscape:zoom="18.503075"
     inkscape:cx="11.07924"
     inkscape:cy="8.8633916"
     inkscape:document-units="mm"
     inkscape:current-layer="g835"
     inkscape:document-rotation="0"
     showgrid="false"
     inkscape:pagecheckerboard="false"
     inkscape:window-width="1665"
     inkscape:window-height="749"
     inkscape:window-x="26"
     inkscape:window-y="23"
     inkscape:window-maximized="0"
     units="px"
     inkscape:showpageshadow="2"
     inkscape:deskcolor="#d1d1d1" />
  <metadata
     id="metadata5">
    <rdf:RDF>
      <cc:Work
         rdf:about="">
        <dc:format>image/svg+xml</dc:format>
        <dc:type
           rdf:resource="http://purl.org/dc/dcmitype/StillImage" />
      </cc:Work>
    </rdf:RDF>
  </metadata>
  <g
     inkscape:label="Calque 1"
     inkscape:groupmode="layer"
     id="layer1">
    <g
       id="g882">
      <g
         id="g835"
         transform="matrix(0.66643101,0,0,0.66643101,0.13378581,0.13575859)">
        <path
           style="fill:none;stroke:#4e4184;stroke-width:0.317493;stroke-linecap:round;stroke-linejoin:miter;stroke-miterlimit:4;stroke-dasharray:none;stroke-opacity:1"
           d="M 6.1912569,0.18193824 2.1551849,4.1610326"
           id="path891"
           sodipodi:nodetypes="cc" />
        <path
           id="rect881"
           style="fill:none;fill-opacity:1;stroke:#4e4184;stroke-width:0.317493;stroke-linejoin:bevel;stroke-miterlimit:4;stroke-dasharray:none;stroke-dashoffset:0;stroke-opacity:1"
           d="M 0.55351985,4.1610326 H 2.1551849 V 5.7628874 H 0.55351985 Z" />
        <g
           aria-label="&lt;I&gt;"
           id="text877"
           style="font-size:2.82437px;line-height:1.25;letter-spacing:0px;word-spacing:0px;fill:#4e4184;stroke-width:0.282437">
          <path
             d="M 2.8823653,5.1642097 V 4.8814969 L 4.2545567,4.3050385 V 4.5174179 L 3.0713002,5.0221637 4.2545567,5.5282886 v 0.2110003 z"
             style="font-family:Arial;-inkscape-font-specification:Arial"
             id="path941" />
          <path
             d="M 4.6531128,5.9516683 V 4.0085349 h 0.2634056 v 1.9431334 z"
             style="font-family:Arial;-inkscape-font-specification:Arial"
             id="path943" />
          <path
             d="M 5.3164535,5.7392889 V 5.5282886 L 6.4997101,5.0221637 5.3164535,4.5174179 V 4.3050385 L 6.688645,4.8814969 v 0.2827128 z"
             style="font-family:Arial;-inkscape-font-specification:Arial"
             id="path945" />
        </g>
        <text
           xml:space="preserve"
           style="font-style:normal;font-weight:normal;font-size:2.82437px;line-height:1.25;font-family:sans-serif;letter-spacing:0px;word-spacing:0px;fill:#4e4184;fill-opacity:1;stroke:none;stroke-width:0.282437"
           x="2.8241293"
           y="3.0167894"
           id="text877-9"><tspan
             sodipodi:role="line"
             id="tspan875-3"
             x="2.8241293"
             y="3.0167894"
             style="font-style:normal;font-variant:normal;font-weight:normal;font-stretch:normal;font-size:2.82437px;font-family:Arial;-inkscape-font-specification:Arial;fill:#4e4184;fill-opacity:1;stroke-width:0.282437">*</tspan></text>
      </g>
    </g>
  </g>
</svg>

<svg xmlns="http://www.w3.org/2000/svg" width="18" height="16" viewBox="0 0 4.762 4.233"><path d="M6.191.182 2.155 4.16" style="fill:none;stroke:#4e4184;stroke-width:.317493;stroke-linecap:round;stroke-linejoin:miter;stroke-miterlimit:4;stroke-dasharray:none;stroke-opacity:1" transform="translate(.134 .136) scale(.66643)"/><path d="M.554 4.161h1.601v1.602H.554Z" style="fill:none;fill-opacity:1;stroke:#4e4184;stroke-width:.317493;stroke-linejoin:bevel;stroke-miterlimit:4;stroke-dasharray:none;stroke-dashoffset:0;stroke-opacity:1" transform="translate(.134 .136) scale(.66643)"/><g style="font-size:2.82437px;line-height:1.25;letter-spacing:0;word-spacing:0;fill:#4e4184;stroke-width:.282437"><path d="M2.882 5.164v-.283l1.373-.576v.212l-1.184.505 1.184.506v.211zm1.771.788V4.009h.264v1.943zm.663-.212v-.212L6.5 5.022l-1.184-.505v-.212l1.373.576v.283z" aria-label="&lt;I&gt;" style="font-family:Arial;-inkscape-font-specification:Arial" transform="translate(.134 .136) scale(.66643)"/></g><text xml:space="preserve" x="2.824" y="3.017" style="font-style:normal;font-weight:400;font-size:2.82437px;line-height:1.25;font-family:sans-serif;letter-spacing:0;word-spacing:0;fill:#4e4184;fill-opacity:1;stroke:none;stroke-width:.282437" transform="translate(.134 .136) scale(.66643)"><tspan x="2.824" y="3.017" style="font-style:normal;font-variant:normal;font-weight:400;font-stretch:normal;font-size:2.82437px;font-family:Arial;-inkscape-font-specification:Arial;fill:#4e4184;fill-opacity:1;stroke-width:.282437">*</tspan></text></svg>
